!!!!SEGMENT: pl-wtm--r-90-n--001-009_noskowski-zygmunt--piesni-op-63-byla-mala-raz-krolewna.krn
!!!cenid: 18xx:2128
!!!COM: Noskowski, Zygmunt
!!!COM-rismID: pe106604
!!!CDT: 1846/05/02-1909/07/23
!!!CNT: Polish
!!!GTL: Pieśni op. 63
!!!OTL: Była mała raz królewna
!!!OMV: 009
!!!PDT: 1899
!!!AGN: Secular; Song
!!!YEC: Copyright 2022 Narodowy Instytut Fryderyka Chopina (https://polishscores.org)
!!!YEM: License CC-BY-4.0 (https://creativecommons.org/licenses/by/4.0)
!!!SMS-siglum: PL-Wtm
!!!SMS-shelfmark: R 90/N
!!!SMS-shelfwork: 001-009 G
!!!SMS-variant:
!!!SMS-altvar:
!!!NIFC-rismSourceID: 1001100017
!!!NIFC-rismChildID: 1001100017
!!!NIFC-islandoraID:
!!!URL-pdf-islandora:
!!!URL-scan:
!!!IIIF:
!!!ONB-nifc: UWAGA: w zbiorze 10 krótkich pieśni
!!!AIN: 1 piano
!!!key: C
!!!OMD:
!!!OMD-mod: Moderato assai
**kern	**kern	**text
*part1	*part1	*
*staff2	*staff1	*
*Ipiano	*Ipiano	*
*I"[Piano]	*I"[Piano]	*
*mI"Pianoforte	*mI"Pianoforte	*
*mI'pf	*mI'pf	*
*clefF4	*clefG2	*
*k[]	*k[]	*
*C:	*C:	*
*M4/4	*M4/4	*
*met(c)	*met(c)	*
=1	=1	=1
!	!LO:TX:a:i:t=Moderato assai:mod=	!
8C/	8g 8e 8c/	By-
8r	8b/	-ła
!LO:SIC:s=8cL	!	!
8c\	8cc/	ma-
!LO:SIC:s=8EJ	!	!
8E\	8a 8e/	-ła
4G\	4g/	raz
4B 4G 4F\	4d/	kró-
=2	=2	=2
4c 4G 4E\	8a/L	-lew-
.	8g/J	.
8GL 8C\	2e/	-na
8A\J	.	.
8G\L	.	.
8E\J	.	.
8C/	4r	.
8r	.	.
=3	=3	=3
4c 4A\	8e/	Jak
.	8f/	ze-
4r	8a/	-fi-
.	8f/	-rek
4d 4B\	4g 4f/	tak
4B 4G\	4dd 4f/	po-
=4	=4	=4
*	*^	*
4c 4C\	8b/L	4e\	-wie-
.	8cc/J	.	.
8C\L	2g 2e/	4rcyyyy	-wna
8D\J	.	.	.
8E\L	.	2rcyyyy	.
8F\	.	.	.
8A\	4r	.	.
8G\J	.	.	.
*	*v	*v	*
!!LO:LB:g=original
=5	=5	=5
8F#X\L	8a 8d/	Na
8G\J	8g/	u-
4A\	8f#X/	-słu-
.	8cc\	-gi
4d\	4b 4f#/	prócz
4d 4c\	4a 4f#/	ser-
=6	=6	=6
*	*^	*
4d 4B\	8ee/L	4g\	-dusz-
.	8dd/J	.	.
8dL 8B\	2g/	4rcyyyy	-ka
8cJ 8A\	.	.	.
4A 4F\	.	2rcyyyy	.
4d 4Fn\	8a/	.	Skrzy-
.	8b 8g/	.	-dla-
=7	=7	=7	=7
4c 4E\	4cc 4g/	2rcyyyy	-te-
4c 4C\	4b-X 4e/	.	-go
4c 4F\	4a 4f/	4rcyyyy	mia-
4c 4A\	8bn/L	4f\	-ła
.	8cc/J	.	.
=8	=8	=8	=8
4B 4G\	8dd/L	4f\	dusz-
.	8b/J	.	.
!	!LO:TX:a:t=P:problem=fermata nad końcową kreską taktową	!	!
8cL\	2cc;/	2e\	-ka.
8G\J	.	.	.
8C/	.	.	.
8r	.	.	.
!	!LO:MO:mod=4r	!	!
4r	4raayy	4rcyyyy	.
*	*v	*v	*
==	==	==
*-	*-	*-
!!!system-decoration: {(s1,s2)}
!!!filter-modern: sic -sq | shed -e "s/yy//" | autostem -r | tie -s  | modori -m
!!!ENC: Mateusz Solarz
!!!END: 2021-05-12
!!!EED: Antoni Szymański
!!!EEV: 2021-06-05
!!!ENC-modern: Andrzej Borzym
!!!END-modern: 2022-08-22
